img/icon-updated-9.svg

<svg fill="none" height="16" viewBox="0 0 17 16" width="17" xmlns="http://www.w3.org/2000/svg"><path clip-rule="evenodd" d="m2.27344 8.00195c0-1.7239.68482-3.3772 1.9038-4.59619 1.21899-1.21899 2.87229-1.90381 4.5962-1.90381 1.72386 0 3.37716.68482 4.59616 1.90381s1.9038 2.87229 1.9038 4.59619c0 1.72391-.6848 3.37725-1.9038 4.59615-1.219 1.219-2.8723 1.9039-4.59616 1.9039-1.72391 0-3.37721-.6849-4.5962-1.9039-1.21898-1.2189-1.9038-2.87224-1.9038-4.59615zm6.5-7.99999687c-2.12173 0-4.15657.84285487-5.65686 2.34314687-1.50029 1.50029-2.343142 3.53512-2.343142 5.65685 0 2.12175.842852 4.15655 2.343142 5.65685s3.53513 2.3432 5.65686 2.3432c2.12176 0 4.15656-.8429 5.65686-2.3432s2.3431-3.5351 2.3431-5.65685c0-2.12173-.8428-4.15656-2.3431-5.65685-1.5003-1.500292-3.5351-2.34314687-5.65686-2.34314688zm.5 4.74999687c0-.19891-.07902-.38967-.21967-.53033-.14066-.14065-.33142-.21967-.53033-.21967s-.38968.07902-.53033.21967c-.14065.14066-.21967.33142-.21967.53033v3.5c.00003.14978.04491.29612.12886.42017.08394.12404.20311.22011.34214.27583l2.49996 1c.1832.06685.3851.05985.5631-.01967.1781-.07949.3181-.22518.3906-.40618.0724-.18101.0715-.3831-.0026-.56345-.074-.18036-.2153-.32479-.3941-.4027l-2.02796-.812z" fill="#000" fill-rule="evenodd"/></svg>

<svg width="17" height="16" viewBox="0 0 17 16" fill="none" xmlns="http://www.w3.org/2000/svg">
<path fill-rule="evenodd" clip-rule="evenodd" d="M2.27344 8.00195C2.27344 6.27805 2.95826 4.62475 4.17724 3.40576C5.39623 2.18677 7.04953 1.50195 8.77344 1.50195C10.4973 1.50195 12.1506 2.18677 13.3696 3.40576C14.5886 4.62475 15.2734 6.27805 15.2734 8.00195C15.2734 9.72586 14.5886 11.3792 13.3696 12.5981C12.1506 13.8171 10.4973 14.502 8.77344 14.502C7.04953 14.502 5.39623 13.8171 4.17724 12.5981C2.95826 11.3792 2.27344 9.72586 2.27344 8.00195ZM8.77344 0.00195313C6.65171 0.00195313 4.61687 0.844808 3.11658 2.3451C1.61629 3.84539 0.773438 5.88022 0.773438 8.00195C0.773438 10.1237 1.61629 12.1585 3.11658 13.6588C4.61687 15.1591 6.65171 16.002 8.77344 16.002C10.8952 16.002 12.93 15.1591 14.4303 13.6588C15.9306 12.1585 16.7734 10.1237 16.7734 8.00195C16.7734 5.88022 15.9306 3.84539 14.4303 2.3451C12.93 0.844808 10.8952 0.00195313 8.77344 0.00195312V0.00195313ZM9.27344 4.75195C9.27344 4.55304 9.19442 4.36228 9.05377 4.22162C8.91311 4.08097 8.72235 4.00195 8.52344 4.00195C8.32453 4.00195 8.13376 4.08097 7.99311 4.22162C7.85246 4.36228 7.77344 4.55304 7.77344 4.75195V8.25195C7.77347 8.40173 7.81835 8.54807 7.9023 8.67212C7.98624 8.79616 8.10541 8.89223 8.24444 8.94795L10.7444 9.94795C10.9276 10.0148 11.1295 10.0078 11.3075 9.92828C11.4856 9.84879 11.6256 9.7031 11.6981 9.5221C11.7705 9.34109 11.7696 9.139 11.6955 8.95865C11.6215 8.77829 11.4802 8.63386 11.3014 8.55595L9.27344 7.74395V4.75195Z" fill="black"/>
</svg>
